X: 1619
T: Joe Yates Schottische Reel
B: australian traditional tunes wiki
M:4/4
L:1/8
R: Set Tune
Q: 1/4=100
K:D
V:1 
AG|:F2F2 GF GB|AF DF DF Ad|1cA EA cA Bc|B2A2FD A,D:|2cA EA c2Bc|d4z2AG|:
"S"Ad fc ed cd|cB B^AB2 Bc|1BG Ec BA FG|AB AF A2FG:|2BG Ec BG EF|D2DDD2"Fine"z2|:
F2F2GF GB|A2AF D2D2|1A,C EF GF GA|Bc AFA2AG:|2A,C EF (3GFE EF|D2"D.S. al Fine"DDD2FG||
% abcbook-tune_id 6342d53a2a06a471a035be55


% abcbook-boost 0
% abcbook-tablature 
% abcbook-transpose 
% abcbook-lastupdated 1665324374385
% abcbook-soundfonts 
% abcbook-repeats 1
% NFF Book 2009

